flaticon/interaction/stopwatch-10.svg

<svg xmlns="http://www.w3.org/2000/svg" width="32" height="32" viewBox="0 0 24 24">
    <path d="M16.628906 16.546875C16.523438 16.535156 16.414062 16.527344 16.304688 16.527344 16.109375 16.527344 15.917969 16.550781 15.734375 16.585938 13.898438 16.824219 12.203125 18.007812 10.910156 19.984375L10.722656 20.269531 10.867188 20.488281C12.320312 22.710938 14.277344 23.933594 16.378906 23.933594 18.480469 23.933594 20.4375 22.710938 21.890625 20.488281L22.078125 20.203125 21.933594 19.984375C20.527344 17.839844 18.652344 16.628906 16.628906 16.546875zM18.269531 19.292969C18.269531 20.375 17.386719 21.253906 16.304688 21.253906 15.222656 21.253906 14.34375 20.375 14.34375 19.292969 14.34375 18.355469 15.003906 17.570312 15.882812 17.375 16.0625 17.355469 16.242188 17.339844 16.421875 17.339844 16.429688 17.339844 16.4375 17.34375 16.445312 17.34375 17.460938 17.414062 18.269531 18.257812 18.269531 19.292969zM16.378906 23.132812C14.625 23.132812 12.964844 22.117188 11.679688 20.269531 12.304688 19.351562 13.019531 18.640625 13.792969 18.144531 13.632812 18.496094 13.542969 18.882812 13.542969 19.292969 13.542969 20.816406 14.78125 22.054688 16.304688 22.054688 17.828125 22.054688 19.070312 20.816406 19.070312 19.292969 19.070312 18.804688 18.941406 18.347656 18.71875 17.949219 19.601562 18.433594 20.417969 19.195312 21.117188 20.207031 19.832031 22.09375 18.152344 23.132812 16.378906 23.132812zM11.421875 13.480469C11.667969 13.820312 12.046875 14.03125 12.460938 14.0625 12.5 14.066406 12.539062 14.066406 12.574219 14.066406 12.953125 14.066406 13.3125 13.917969 13.582031 13.648438 13.878906 13.355469 14.027344 12.945312 13.996094 12.53125 13.960938 12.113281 13.75 11.734375 13.410156 11.488281L8.234375 7.742188C8.074219 7.628906 7.855469 7.644531 7.71875 7.785156 7.578125 7.925781 7.5625 8.144531 7.675781 8.300781zM12.941406 12.136719C13.089844 12.246094 13.183594 12.410156 13.199219 12.59375 13.210938 12.777344 13.144531 12.953125 13.015625 13.085938 12.886719 13.214844 12.707031 13.28125 12.527344 13.265625 12.34375 13.253906 12.175781 13.160156 12.070312 13.011719L9.785156 9.851562zM12 .0664062C11.777344.0664062 11.601562.246094 11.601562.46875L11.601562 5.785156C11.601562 6.003906 11.777344 6.183594 12 6.183594 12.222656 6.183594 12.398438 6.003906 12.398438 5.785156L12.398438.875C18.390625 1.085938 23.199219 6.027344 23.199219 12.066406 23.199219 13.453125 22.945312 14.8125 22.445312 16.105469 22.367188 16.3125 22.46875 16.542969 22.675781 16.621094 22.722656 16.640625 22.773438 16.648438 22.820312 16.648438 22.980469 16.648438 23.132812 16.550781 23.191406 16.394531 23.726562 15.007812 24 13.554688 24 12.066406 24 5.449219 18.617188.0664062 12 .0664062zM9.296875 22.941406C4.292969 21.699219.800781 17.230469.800781 12.066406.800781 9.082031 1.960938 6.277344 4.066406 4.160156 4.222656 4.003906 4.222656 3.753906 4.066406 3.597656 3.910156 3.441406 3.65625 3.441406 3.5 3.597656 1.242188 5.863281 0 8.871094 0 12.066406 0 17.597656 3.742188 22.386719 9.105469 23.714844 9.136719 23.722656 9.167969 23.726562 9.203125 23.726562 9.382812 23.726562 9.542969 23.605469 9.589844 23.421875 9.640625 23.210938 9.511719 22.992188 9.296875 22.941406zM9.296875 22.941406"/>
</svg>

<svg xmlns="http://www.w3.org/2000/svg" width="32" height="32" viewBox="0 0 24 24">
    <path d="M16.629 16.547a2.95 2.95 0 0 0-.324-.02c-.196 0-.387.024-.57.059-1.837.238-3.532 1.422-4.825 3.398l-.187.286.144.218c1.453 2.223 3.41 3.446 5.512 3.446 2.101 0 4.058-1.223 5.512-3.446l.187-.285-.144-.219c-1.407-2.144-3.282-3.355-5.305-3.437zm1.64 2.746a1.962 1.962 0 1 1-2.387-1.918c.18-.02.36-.035.54-.035.008 0 .015.004.023.004a1.959 1.959 0 0 1 1.825 1.949zm-1.89 3.84c-1.754 0-3.414-1.016-4.7-2.863.626-.918 1.34-1.63 2.114-2.125a2.764 2.764 0 1 0 5.277 1.148c0-.488-.129-.945-.351-1.344.883.485 1.699 1.246 2.398 2.258-1.285 1.887-2.965 2.926-4.738 2.926zm0 0M11.422 13.48a1.412 1.412 0 0 0 1.152.586c.38 0 .739-.148 1.008-.418a1.418 1.418 0 0 0-.172-2.16L8.234 7.742a.398.398 0 0 0-.515.043.399.399 0 0 0-.043.516zm1.52-1.343c.148.11.242.273.257.457a.643.643 0 0 1-.183.492.618.618 0 0 1-.489.18.608.608 0 0 1-.457-.254l-2.285-3.16zm0 0M12 .066a.398.398 0 0 0-.398.403v5.316a.398.398 0 1 0 .796 0V.875c5.993.21 10.801 5.152 10.801 11.191 0 1.387-.254 2.746-.754 4.04a.398.398 0 0 0 .375.542c.16 0 .313-.097.371-.253.536-1.387.809-2.84.809-4.329 0-6.617-5.383-12-12-12zm0 0M9.297 22.941A11.177 11.177 0 0 1 .8 12.066c0-2.984 1.16-5.789 3.265-7.906a.396.396 0 0 0 0-.562.4.4 0 0 0-.566 0A11.921 11.921 0 0 0 0 12.066c0 5.532 3.742 10.32 9.105 11.649a.4.4 0 0 0 .191-.773zm0 0"/>
</svg>
